image-multiple.svg

<svg fill="currentColor" viewBox="0 0 24 24"><path d="M22 16V4a2 2 0 0 0-2-2H8a2 2 0 0 0-2 2v12a2 2 0 0 0 2 2h12a2 2 0 0 0 2-2m-11-4 2.03 2.71L16 11l4 5H8M2 6v14a2 2 0 0 0 2 2h14v-2H4V6"/></svg>

<svg  viewBox="0 0 24 24" fill="currentColor"><path  d="M22,16V4A2,2 0 0,0 20,2H8A2,2 0 0,0 6,4V16A2,2 0 0,0 8,18H20A2,2 0 0,0 22,16M11,12L13.03,14.71L16,11L20,16H8M2,6V20A2,2 0 0,0 4,22H18V20H4V6"/></svg>
